X:835
T:Monr F st Omer.
T:(Monseigneur Fran\ccois de St Omer? [NB1])
C:John Malchair's Third Collection of Tunes
F:https://www.vwml.org/record/Malchair/3619/p83
F:www.vwml.org/topics/historic-dance-and-tune-books/Malchair
Z:Eric Conrad Apr 2020
N:NB1) See below regarding the title.
N:NB2) In the MS, the directions given in the final measure are conflicting and not at all clear.
N:
W:NB1)  A possible identification for the person named in the title is Monseigneur Fran\ccois
W:de Valbelle \'ev\^eque de St Omer (Monsignor Francis of Valbelle, Bishop of St Omer). The
W:National Library of Rome has a copy of a letter, dated April 1724, from the the Monsignor.
W:The letter is available at archive.org:
W:\u00a0 \u00a0 https://archive.org/details/bub_gb_mdyrajOyqysC/mode/2up
W:
W:NB2) In the MS, the directions given in the final measure are conflicting and not at all clear.
W:The segno symbol appears three times, at the beginning and the end of the A strain, and again
W:at the end of the B strain.  A da capo mark (D.C.) appears at the end, to the right of the staff.
W:In addition, there is a repeat mark at the beginning of the B strain.
W:A playable version of the tune follows.
M:6/8
L:1/8
K:G
|: !segno!B2B B>cB | A2A A>BA | G2G B2d | A6 |
B2B B>cB | A2A A>BA | G2G A2F | !segno!G6 :|
|: D3 DEF | G2G GAB | A3 A2B/c/ | dBG G3 |
D3 DEF | G2G GAB | Adc BAG |  "_NB2"!fermata!d4 ^c2!segno!=c2y!D.C.!y ||


